X:1
T: My Wife's A Winsome Wee Thing
C:
R:Jig
Q:180
K:D
M:6/8
L:1/16
|:fe|d4A2 B2d2A2|d6A4B2|=c2d2c2 G2E2G2|=c6E4^c2|
d4A2 B2d2A2|d6A4G2|F2D2F2 E2C2E2|D6-D4:|
|:fg|a2b2a2 f2d2f2|a6g4f2|g2a2g2 e2=c2e2|
|1g6 e2f2g2|a2b2a2 f2d2f2|a6g6|f2d2f2 e2c2e2|d6D4:|
|2g2a2g2 e2=c2e2|a2b2a2 f2d2f2|a2b2a2 g2a2b2|f2g2a2 g2e2c2|d6D4||
